svg/fluentui-system-icons/ic_fluent_comment_checkmark_12_filled.svg

<svg width="12" height="12" viewBox="0 0 12 12" fill="none" xmlns="http://www.w3.org/2000/svg">
<path d="M12 3.5C12 5.433 10.433 7 8.5 7C6.567 7 5 5.433 5 3.5C5 1.567 6.567 0 8.5 0C10.433 0 12 1.567 12 3.5ZM10.3536 2.14645C10.1583 1.95118 9.84171 1.95118 9.64645 2.14645L8 3.79289L7.35355 3.14645C7.15829 2.95118 6.84171 2.95118 6.64645 3.14645C6.45118 3.34171 6.45118 3.65829 6.64645 3.85355L7.64645 4.85355C7.84171 5.04882 8.15829 5.04882 8.35355 4.85355L10.3536 2.85355C10.5488 2.65829 10.5488 2.34171 10.3536 2.14645ZM8.5 8C9.41826 8 10.2723 7.72496 10.9842 7.25277C10.8599 8.23801 10.019 9 9 9H6.65139L3.77735 10.916C3.62392 11.0183 3.42665 11.0278 3.26407 10.9408C3.10149 10.8538 3 10.6844 3 10.5L3 9C1.89543 9 1 8.10457 1 7V3C1 1.89543 1.89543 1 3 1H4.75777C4.27914 1.71505 4 2.57493 4 3.5C4 5.98528 6.01472 8 8.5 8Z" fill="#212121"/>
</svg>

<svg xmlns="http://www.w3.org/2000/svg" width="12" height="12"><path d="M12 3.5a3.5 3.5 0 1 1-7 0 3.5 3.5 0 0 1 7 0Zm-1.646-1.354a.5.5 0 0 0-.708 0L8 3.793l-.646-.647a.5.5 0 1 0-.708.708l1 1a.5.5 0 0 0 .708 0l2-2a.5.5 0 0 0 0-.708ZM8.5 8a4.48 4.48 0 0 0 2.484-.747A2 2 0 0 1 9 9H6.651l-2.874 1.916A.5.5 0 0 1 3 10.5V9a2 2 0 0 1-2-2V3a2 2 0 0 1 2-2h1.758A4.5 4.5 0 0 0 8.5 8Z"/></svg>
